SVG/key.svg

<?xml version="1.0" encoding="utf-8"?>
<!-- Generated by IcoMoon.io -->
<!DOCTYPE svg PUBLIC "-//W3C//DTD SVG 1.1//EN" "http://www.w3.org/Graphics/SVG/1.1/DTD/svg11.dtd">
<svg version="1.1" xmlns="http://www.w3.org/2000/svg" xmlns:xlink="http://www.w3.org/1999/xlink" width="14" height="14" viewBox="0 0 14 14">
<path fill="#444444" d="M6.5 4q0-0.625-0.438-1.062t-1.062-0.438-1.062 0.438-0.438 1.062q0 0.328 0.148 0.648-0.32-0.148-0.648-0.148-0.625 0-1.062 0.438t-0.438 1.062 0.438 1.062 1.062 0.438 1.062-0.438 0.438-1.062q0-0.328-0.148-0.648 0.32 0.148 0.648 0.148 0.625 0 1.062-0.438t0.438-1.062zM13.148 9.5q0 0.133-0.383 0.516t-0.516 0.383q-0.070 0-0.223-0.125t-0.285-0.258-0.301-0.312-0.191-0.203l-0.75 0.75 1.719 1.719q0.219 0.219 0.219 0.531 0 0.328-0.305 0.633t-0.633 0.305q-0.312 0-0.531-0.219l-5.242-5.242q-1.375 1.023-2.852 1.023-1.273 0-2.074-0.801t-0.801-2.074q0-1.25 0.742-2.445t1.937-1.937 2.445-0.742q1.273 0 2.074 0.801t0.801 2.074q0 1.477-1.023 2.852l2.773 2.773 0.75-0.75q-0.023-0.023-0.203-0.191t-0.312-0.301-0.258-0.285-0.125-0.223q0-0.133 0.383-0.516t0.516-0.383q0.102 0 0.18 0.078 0.047 0.047 0.359 0.348t0.641 0.621 0.676 0.672 0.57 0.609 0.223 0.32z"></path>
</svg>

<svg xmlns="http://www.w3.org/2000/svg" viewBox="0 0 14 14"><path d="M6.5 4q0-.625-.438-1.062T5 2.5t-1.062.438T3.5 4q0 .328.148.648Q3.328 4.5 3 4.5q-.625 0-1.062.438T1.5 6t.438 1.062T3 7.5t1.062-.438T4.5 6q0-.328-.148-.648.32.148.648.148.625 0 1.062-.438T6.5 4zm6.648 5.5q0 .133-.383.516t-.516.383q-.07 0-.226-.128t-.285-.258-.3-.312-.19-.203l-.75.75 1.717 1.72q.22.22.22.53 0 .33-.306.633t-.632.305q-.314 0-.533-.22l-5.24-5.242Q4.35 9 2.873 9 1.6 9 .8 8.2T0 6.126q0-1.25.74-2.445t1.94-1.934 2.445-.742q1.273 0 2.074.8T8 3.878Q8 5.355 6.976 6.73l2.77 2.77.75-.75q-.022-.023-.202-.19t-.312-.302-.258-.285T9.6 7.75q0-.133.383-.516t.516-.383q.1 0 .18.08.044.048.356.35t.64.62.677.67.57.61.223.32z" /></svg>
